img/arrow-28.svg

<svg fill="none" height="14" viewBox="0 0 17 14" width="17" xmlns="http://www.w3.org/2000/svg"><path d="m15.8718 7.59866c.3307-.33063.3307-.86669 0-1.19732l-5.3879-5.3879c-.3306-.330628-.86664-.330628-1.19727 0-.33062.33063-.33062.86668 0 1.19731l4.78927 4.78925-4.78927 4.7892c-.33062.3307-.33062.8667 0 1.1974.33063.3306.86667.3306 1.19727 0zm-14.14464-1.44529c-.46758 0-.846632.37905-.846632.84663s.379052.84663.846632.84663zm13.54604 0h-13.54604v1.69326h13.54604z" fill="#109c7b"/></svg>

<svg width="17" height="14" viewBox="0 0 17 14" fill="none" xmlns="http://www.w3.org/2000/svg">
<path d="M15.8718 7.59866C16.2025 7.26803 16.2025 6.73197 15.8718 6.40134L10.4839 1.01344C10.1533 0.682812 9.61726 0.682812 9.28663 1.01344C8.95601 1.34407 8.95601 1.88012 9.28663 2.21075L14.0759 7L9.28663 11.7892C8.95601 12.1199 8.95601 12.6559 9.28663 12.9866C9.61726 13.3172 10.1533 13.3172 10.4839 12.9866L15.8718 7.59866ZM1.72716 6.15337C1.25958 6.15337 0.880528 6.53242 0.880528 7C0.880528 7.46758 1.25958 7.84663 1.72716 7.84663V6.15337ZM15.2732 6.15337L1.72716 6.15337V7.84663L15.2732 7.84663V6.15337Z" fill="#109C7B"/>
</svg>
